assets/img/braze_icons/award-04.svg

<svg fill="none" height="24" viewBox="0 0 24 24" width="24" xmlns="http://www.w3.org/2000/svg"><path clip-rule="evenodd" d="m7.16153 1h9.67707c.5271-.000016.9819-.000031 1.3565.03057.3953.0323.7886.10362 1.1669.29641.5645.28762 1.0235.74656 1.3111 1.31105.1928.37838.2641.7716.2964 1.16694.0306.37457.0306.82933.0306 1.35647v.7866c.0003.34661.0005.65236-.0613.95353-.0543.26479-.1442.52102-.2672.76173-.1399.27379-.3311.51239-.5478.78289l-3.647 4.55871c2.1062 2.356 2.0282 5.9754-.2342 8.2377-2.3431 2.3432-6.1421 2.3432-8.48524 0-2.26234-2.2623-2.34035-5.8818-.23405-8.2378l-3.64698-4.55863c-.21674-.27049-.40793-.50909-.5478-.78287-.12298-.24071-.21286-.49694-.2672-.76173-.06181-.30117-.06157-.60692-.06129-.95353l.00003-.78658c-.00002-.52715-.00003-.98191.03057-1.35649.0323-.39534.10362-.78856.29641-1.16694.28762-.56449.74657-1.02343 1.31105-1.31105.37838-.19279.7716-.26411 1.16695-.29641.37456-.030601.82935-.030586 1.35648-.03057zm4.83847 9.3712 4.7229-6.07224c.3223-.41432.4834-.62148.4819-.7954-.0013-.15131-.071-.29389-.1897-.3878-.1363-.10795-.3988-.10795-.9237-.10795h-8.18274c-.52489 0-.78733 0-.92371.10795-.11864.09391-.18838.23649-.18967.3878-.00148.17393.15965.38108.4819.7954z" fill="#801ed7" fill-rule="evenodd"/></svg>

<svg width="24" height="24" viewBox="0 0 24 24" fill="none" xmlns="http://www.w3.org/2000/svg">
<path fill-rule="evenodd" clip-rule="evenodd" d="M7.16153 1H16.8386C17.3657 0.999984 17.8205 0.999969 18.1951 1.03057C18.5904 1.06287 18.9837 1.13419 19.362 1.32698C19.9265 1.6146 20.3855 2.07354 20.6731 2.63803C20.8659 3.01641 20.9372 3.40963 20.9695 3.80497C21.0001 4.17954 21.0001 4.6343 21.0001 5.16144L21.0001 5.94804C21.0004 6.29465 21.0006 6.6004 20.9388 6.90157C20.8845 7.16636 20.7946 7.42259 20.6716 7.6633C20.5317 7.93709 20.3405 8.17569 20.1238 8.44619L16.4768 13.0049C18.583 15.3609 18.505 18.9803 16.2426 21.2426C13.8995 23.5858 10.1005 23.5858 7.75736 21.2426C5.49502 18.9803 5.41701 15.3608 7.52331 13.0048L3.87633 8.44617C3.65959 8.17568 3.4684 7.93708 3.32853 7.6633C3.20555 7.42259 3.11567 7.16636 3.06133 6.90157C2.99952 6.6004 2.99976 6.29465 3.00004 5.94804L3.00007 5.16146C3.00005 4.63431 3.00004 4.17955 3.03064 3.80497C3.06294 3.40963 3.13426 3.01641 3.32705 2.63803C3.61467 2.07354 4.07362 1.6146 4.6381 1.32698C5.01648 1.13419 5.4097 1.06287 5.80505 1.03057C6.17961 0.999969 6.6344 0.999984 7.16153 1ZM12 10.3712L16.7229 4.29896C17.0452 3.88464 17.2063 3.67748 17.2048 3.50356C17.2035 3.35225 17.1338 3.20967 17.0151 3.11576C16.8788 3.00781 16.6163 3.00781 16.0914 3.00781L7.90866 3.00781C7.38377 3.00781 7.12133 3.00781 6.98495 3.11576C6.86631 3.20967 6.79657 3.35225 6.79528 3.50356C6.7938 3.67749 6.95493 3.88464 7.27718 4.29896L12 10.3712Z" fill="#801ED7"/>
</svg>
